static/assets/images/icons/defisafety-simple.svg

<svg width="256" height="256" viewBox="0 0 256 256" fill="none" xmlns="http://www.w3.org/2000/svg">
<path d="M77.0137 203.933C62.2991 195.63 51.6323 182.541 48.2534 165.9C47.8438 163.892 47.4375 160.619 47.0346 156.081C44.0289 122.176 41.0183 88.1595 38.0027 54.0327C37.9829 53.8345 38.0721 53.7272 38.2702 53.7107C48.942 52.8156 59.5725 51.1956 70.1618 48.8507C89.7614 44.5077 108.572 38.9327 126.593 32.1258C126.946 31.9937 127.227 31.9656 127.435 32.0416C147.107 39.3802 167.215 45.2095 187.76 49.5294C197.53 51.5837 207.363 53.0204 217.258 53.8395C217.437 53.8527 217.518 53.9484 217.501 54.1268C214.267 90.0966 211.036 126.056 207.805 162.006C206.274 179.068 194.364 195.085 179.639 203.204C162.206 212.819 144.812 222.393 127.455 231.928C127.368 231.975 127.271 232 127.172 232C127.074 232 126.976 231.975 126.89 231.928C110.088 222.552 93.4624 213.22 77.0137 203.933ZM167.159 179.673C173.293 176.269 178.014 170.537 180.214 163.978C180.858 162.066 181.359 159.138 181.715 155.195C184.074 129.166 186.414 103.122 188.736 77.0641C188.749 76.9056 188.678 76.8114 188.523 76.7817C167.757 72.7029 147.371 67.2072 127.365 60.2946C127.22 60.2418 127.075 60.2418 126.929 60.2946C107.373 67.1015 87.4395 72.5245 67.1297 76.5637C67.0082 76.5888 66.9001 76.6577 66.8261 76.7572C66.7521 76.8568 66.7173 76.9801 66.7284 77.1037C69.0801 103.585 71.4053 129.916 73.7042 156.096C74.4242 164.264 77.5719 170.859 83.1473 175.883C84.7096 177.29 87.4461 179.121 91.3568 181.377C103.204 188.213 115.116 194.933 127.093 201.535C127.164 201.574 127.244 201.595 127.325 201.595C127.405 201.595 127.484 201.574 127.554 201.535C140.775 194.275 153.977 186.988 167.159 179.673Z" fill="black"/>
</svg>

<svg xmlns="http://www.w3.org/2000/svg" fill="none" viewBox="0 0 256 256"><path fill="#000" d="M77.014 203.933c-14.715-8.303-25.382-21.392-28.76-38.033q-.614-3.012-1.22-9.819-4.508-50.857-9.031-102.048-.03-.298.267-.322a240 240 0 0 0 31.892-4.86q29.4-6.514 56.431-16.725.53-.198.842-.084a419 419 0 0 0 60.325 17.487 239 239 0 0 0 29.498 4.31q.268.021.243.288l-9.696 107.879c-1.531 17.062-13.441 33.079-28.166 41.198a35373 35373 0 0 1-52.184 28.724.6.6 0 0 1-.565 0 11440 11440 0 0 1-49.876-27.995m90.145-24.26c6.134-3.404 10.855-9.136 13.055-15.695q.966-2.868 1.501-8.783 3.538-39.044 7.021-78.13.02-.24-.213-.283a456 456 0 0 1-61.158-16.487.62.62 0 0 0-.436 0 447 447 0 0 1-59.8 16.269.506.506 0 0 0-.4.54q3.526 39.722 6.975 78.992 1.08 12.251 9.443 19.787 2.345 2.11 8.21 5.494a2097 2097 0 0 0 35.736 20.158q.108.06.232.06.122 0 .229-.06 19.832-10.89 39.605-21.862"/></svg>
